X: 4316
T: WELCOME THE PRESENT. (Maritana.)
%R: air, march
B: James Kerr "Merry Melodies" v.4 p.33 #316
Z: 2016 John Chambers <jc:trillian.mit.edu>
M: 2/4
L: 1/8
K: F
|:\
c2A>B | cfc2 | zABd | c4 |\
c2{e}d>c | cfdB | A2G2 | F2z2 H:|\
G2G2 | c2c>c | B_edc | B2=B2 |\
c2_B2 | Ad2c | =Be2d | c2"_D.C."[c2E2] |]

%%sep 1 1 500
%%sep 1 1 500

